TCanvas/axes.svg

<svg xmlns="http://www.w3.org/2000/svg" viewBox="0 0 1200 800" preserveAspectRatio="none" width="1200" height="800">
 <defs>
  <pattern id="pat_3005_6" patternUnits="userSpaceOnUse" width="8" height="8">
   <path d="M0,0L8,8" style="stroke: magenta; stroke-width: 1;"></path>
  </pattern>
  <pattern id="pat_3005_1" patternUnits="userSpaceOnUse" width="8" height="8">
   <path d="M0,0L8,8" style="stroke: black; stroke-width: 1;"></path>
  </pattern>
  <pattern id="pat_3004_2" patternUnits="userSpaceOnUse" width="8" height="8">
   <path d="M8,0L0,8" style="stroke: red; stroke-width: 1;"></path>
  </pattern>
  <pattern id="pat_3004_4" patternUnits="userSpaceOnUse" width="8" height="8">
   <path d="M8,0L0,8" style="stroke: blue; stroke-width: 1;"></path>
  </pattern>
 </defs>
 <title>
  ROOT canvas
 </title>
 <rect x="0" y="0" width="1200" height="800" style="fill: white;"></rect>
 <g>
  <g transform="translate(120,80)">
   <title></title>
   <rect x="0" y="0" width="960" height="640" style="fill: white; stroke: black; stroke-width: 1;"></rect>
   <g>
    <path d="M103,0v640M392,0v640M681,0v640" style="stroke: black; stroke-width: 1; stroke-dasharray: 1,2;"></path>
    <path d="M0,640h960M0,527h960M0,460h960M0,413h960M0,377h960M0,347h960M0,322h960M0,300h960M0,281h960M0,263h960M0,150h960M0,84h960M0,37h960M0,0h960" style="stroke: black; stroke-width: 1; stroke-dasharray: 1,2;"></path>
   </g>
   <svg x="0" y="0" overflow="hidden" width="960" height="640" viewBox="0 0 960 640">
    <g>
     <path d="M429.27,645c-0.15,-0.86,-30.47,-177.38,-30.9,-179.18s-15.87,-42.29,-17.43,-45.82s-38,-71.35,-39.67,-75s-17.29,-45.49,-18.23,-45.24s11.06,-34.31,12.24,-36.91s26.42,-35.04,29.11,-40.48s51.82,-136.24,52.75,-139.29s12.59,-46.46,12.11,-46.59s-15.04,-65.78,-15.16,-66.33L384.86,-23.14c0.9,2.17,36.25,88.42,36.74,88.65s-23.15,2.4,-33.11,8.75s-48.32,129.46,-50.96,134.79s-29,41.97,-29.56,41.41s22.23,77.8,22.8,78.29s-20.54,28.39,-16.78,28.73s37.99,71.24,39.51,74.66s15.26,38.87,15.67,40.6s30.38,176.51,30.52,177.36Z" style="stroke: none; fill: url(#pat_3005_6); opacity: 0.75;"></path>
     <path d="M429.27,645c-0.15,-0.86,-30.47,-177.38,-30.9,-179.18s-15.87,-42.29,-17.43,-45.82s-38,-71.35,-39.67,-75s-17.29,-45.49,-18.23,-45.24s11.06,-34.31,12.24,-36.91s26.42,-35.04,29.11,-40.48s51.82,-136.24,52.75,-139.29s12.59,-46.46,12.11,-46.59s-15.04,-65.78,-15.16,-66.33" style="stroke: magenta; stroke-width: 3; fill: none;"></path>
    </g>
    <g>
     <path d="M959,459l-64,-2l-74,-2l-66,-8l-94,-6l-70,-17l-62,-30l-76,-53l-51,-41l-67,-10l-38,-19l-23,-53l-18,-60l-8,-53l11,-106" style="stroke: black; stroke-width: 3; fill: none;"></path>
    </g>
    <g>
     <path d="M526.67,251.47c3.91,-2.24,20.41,-13.61,31.19,-17.88s26.76,-8.39,43.59,-9.53s38.55,4.57,57.88,4.77s43.18,-2.02,58.11,-3.58s20.93,-2.52,32.45,-4.77s25.74,-6.99,39.34,-9.54s28.81,-2.05,45.15,-5.96s39.59,-14.27,58.52,-20.26s56.2,-16.13,66.42,-19.07L951.05,136.83c-10.35,2.97,-48.49,13.35,-67.2,19.3s-40.65,15.91,-56.44,19.68s-30.28,3.16,-43.7,5.65s-28.41,7.41,-39.55,9.58s-15.9,2.92,-29.83,4.38s-35.53,3.56,-54.69,3.42s-41.52,-6.03,-60.23,-4.7s-39.93,6.61,-52.6,11.57s-30.62,17.25,-35.06,19.74Z" style="stroke: none; fill: url(#pat_3004_2); opacity: 0.75;"></path>
     <path d="M526.67,251.47c3.91,-2.24,20.41,-13.61,31.19,-17.88s26.76,-8.39,43.59,-9.53s38.55,4.57,57.88,4.77s43.18,-2.02,58.11,-3.58s20.93,-2.52,32.45,-4.77s25.74,-6.99,39.34,-9.54s28.81,-2.05,45.15,-5.96s39.59,-14.27,58.52,-20.26s56.2,-16.13,66.42,-19.07" style="stroke: red; stroke-width: 3; fill: none;"></path>
    </g>
    <g>
     <path d="M530.46,464.8c6.3,-3.28,33.93,-18.21,48.08,-25.03s42.43,-20.95,56.54,-25.03s24.23,-6.64,35.19,-4.77s23.36,10.06,32.45,15.49s27.93,23.63,41.56,29.8s41.98,5.93,56.96,10.73s27.39,12.44,42.16,19.07s49.35,20.45,64.28,28.6s45.95,29.75,52.06,33.71L940.71,576.76c-5.84,-3.79,-35.48,-24.55,-49.81,-32.37s-47.93,-21.12,-61.83,-27.39s-23.59,-12.75,-38.51,-17.67s-46.06,-5.56,-60.71,-12.17s-37.2,-26.74,-45.07,-31.63s-13.93,-9.94,-20.4,-11.04s-8.91,0.44,-19.57,3.89s-37.82,16.51,-51.07,22.94s-40.93,21.32,-47.11,24.54Z" style="stroke: none; fill: url(#pat_3004_4); opacity: 0.75;"></path>
     <path d="M530.46,464.8c6.3,-3.28,33.93,-18.21,48.08,-25.03s42.43,-20.95,56.54,-25.03s24.23,-6.64,35.19,-4.77s23.36,10.06,32.45,15.49s27.93,23.63,41.56,29.8s41.98,5.93,56.96,10.73s27.39,12.44,42.16,19.07s49.35,20.45,64.28,28.6s45.95,29.75,52.06,33.71" style="stroke: blue; stroke-width: 3; fill: none;"></path>
    </g>
    <g>
     <path d="M465.21,126.33c12.7,4.85,59.77,23.34,87.31,33.37s76.3,32.13,99.82,34.56s28.81,-1.09,42.81,-5.96s37.89,-22.57,51.38,-28.6s34.56,-11.24,45.73,-15.49s20.75,-9.1,31.05,-13.11s28.18,-10.85,40.09,-14.3s21.93,-5.37,37.34,-8.34s49.07,-7.99,58.59,-9.53L954.51,69.31c-9.65,1.57,-43.47,6.59,-59.45,9.69s-27.31,5.3,-40.02,8.99s-31.99,11.02,-42.62,15.16s-19.46,8.68,-30.83,13.02s-34.01,10.12,-47.33,16.15s-37.32,23.49,-48.98,27.65s-9.66,6.53,-29.87,4.45s-66.31,-23.2,-92.64,-32.91s-74.23,-28.38,-86.86,-33.2Z" style="stroke: none; fill: url(#pat_3004_4); opacity: 0.75;"></path>
     <path d="M465.21,126.33c12.7,4.85,59.77,23.34,87.31,33.37s76.3,32.13,99.82,34.56s28.81,-1.09,42.81,-5.96s37.89,-22.57,51.38,-28.6s34.56,-11.24,45.73,-15.49s20.75,-9.1,31.05,-13.11s28.18,-10.85,40.09,-14.3s21.93,-5.37,37.34,-8.34s49.07,-7.99,58.59,-9.53" style="stroke: blue; stroke-width: 3; fill: none;"></path>
    </g>
   </svg>
   <g>
    <g transform="translate(0,640)">
     <line x1="0" y1="0" x2="960" y2="0" style="stroke: black; stroke-width: 1;"></line>
     <path d="M103,-16v16m289,-16v16m289,-16v16" style="stroke: black; stroke-width: 1;"></path>
     <path d="M103,-624v-16m289,16v-16m289,16v-16" style="stroke: black; stroke-width: 1;"></path>
     <g font-family="Arial" font-size="24" space="preserve">
      <text fill="black" text-anchor="start" transform="translate(92,40)">
       <tspan dy="-.1em">
        2
       </tspan>
       <tspan font-size="60%" dx=".1em" dy="-.6em">
        6
       </tspan>
      </text>
      <text fill="black" text-anchor="start" transform="translate(381,40)">
       <tspan dy="-.1em">
        2
       </tspan>
       <tspan font-size="60%" dx=".1em" dy="-.6em">
        7
       </tspan>
      </text>
      <text fill="black" text-anchor="start" transform="translate(670,40)">
       <tspan dy="-.1em">
        2
       </tspan>
       <tspan font-size="60%" dx=".1em" dy="-.6em">
        8
       </tspan>
      </text>
     </g>
     <g font-family="Arial" font-size="28" space="preserve" transform="translate(480,45)">
      <text fill="black" text-anchor="start" transform="translate(-58,5)">
       <tspan dy="-.1em">
        m
       </tspan>
       <tspan font-size="60%" dx=".1em" dy=".4em">
        A
       </tspan>
       <tspan dy="-.24em">
        (GeV)
       </tspan>
      </text>
     </g>
    </g>
    <g>
     <line x1="0" y1="0" x2="0" y2="640" style="stroke: black; stroke-width: 1;"></line>
     <path d="M36,640h-36m36,-113h-36m36,-67h-36m36,-47h-36m36,-36h-36m36,-30h-36m36,-25h-36m36,-22h-36m36,-19h-36m36,-18h-36m36,-113h-36m36,-66h-36m36,-47h-36m36,-37h-36" style="stroke: black; stroke-width: 1;"></path>
     <path d="M924,640h36m-36,-113h36m-36,-67h36m-36,-47h36m-36,-36h36m-36,-30h36m-36,-25h36m-36,-22h36m-36,-19h36m-36,-18h36m-36,-113h36m-36,-66h36m-36,-47h36m-36,-37h36" style="stroke: black; stroke-width: 1;"></path>
     <g font-family="Arial" font-size="16" space="preserve">
      <text fill="black" text-anchor="end" dy=".4em" transform="translate(-4,640)">
       1
      </text>
      <text fill="black" text-anchor="end" dy=".4em" transform="translate(-4,527)">
       2
      </text>
      <text fill="black" text-anchor="end" dy=".4em" transform="translate(-4,460)">
       3
      </text>
      <text fill="black" text-anchor="end" dy=".4em" transform="translate(-4,413)">
       4
      </text>
      <text fill="black" text-anchor="end" dy=".4em" transform="translate(-4,377)">
       5
      </text>
      <text fill="black" text-anchor="end" dy=".4em" transform="translate(-4,347)">
       6
      </text>
      <text fill="black" text-anchor="end" dy=".4em" transform="translate(-4,322)">
       7
      </text>
      <text fill="black" text-anchor="end" dy=".4em" transform="translate(-4,300)">
       8
      </text>
      <text fill="black" text-anchor="end" dy=".4em" transform="translate(-4,281)">
       9
      </text>
      <text fill="black" text-anchor="end" dy=".4em" transform="translate(-4,263)">
       10
      </text>
      <text fill="black" text-anchor="end" dy=".4em" transform="translate(-4,150)">
       20
      </text>
      <text fill="black" text-anchor="end" dy=".4em" transform="translate(-4,84)">
       30
      </text>
      <text fill="black" text-anchor="end" dy=".4em" transform="translate(-4,37)">
       40
      </text>
      <text fill="black" text-anchor="end" dy=".4em" transform="translate(-4,0)">
       50
      </text>
     </g>
     <g font-family="Arial" font-size="28" space="preserve" transform="translate(-49,640)">
      <text fill="black" text-anchor="start" transform=" rotate(270) translate(0,14)">
       tanβ
      </text>
     </g>
    </g>
   </g>
   <g>
    <g font-family="Arial" font-size="29" space="preserve" font-weight="bold">
     <text fill="magenta" text-anchor="start" transform="translate(432,45)">
      <tspan dy="-.1em">
       ← t → bH
      </tspan>
      <tspan font-size="60%" dx=".1em" dy="-.6em">
       +
      </tspan>
      <tspan dy=".36em">
       , H
      </tspan>
      <tspan font-size="60%" dx=".1em" dy="-.6em">
       +
      </tspan>
      <tspan dy=".36em">
       → τν
      </tspan>
     </text>
    </g>
    <g font-family="Arial" font-size="29" space="preserve" font-weight="bold">
     <text fill="black" text-anchor="start" transform="translate(808,331)">
      ATLAS
     </text>
    </g>
    <g font-family="Arial" font-size="17" space="preserve" font-weight="bold">
     <text fill="black" text-anchor="start" transform="translate(785,369)">
      <tspan dy="-.1em">
       ∫
      </tspan>
      <tspan>
       Ldt = 300 fb
      </tspan>
      <tspan font-size="60%" dx=".1em" dy="-.6em">
       -1
      </tspan>
     </text>
    </g>
    <g font-family="Arial" font-size="17" space="preserve" font-weight="bold">
     <text fill="black" text-anchor="start" transform="translate(800,406)">
      Maximal mixing
     </text>
    </g>
    <g font-family="Arial" font-size="17" space="preserve" font-weight="bold">
     <text fill="black" text-anchor="start" transform="translate(881,489)">
      LEP 2000
     </text>
    </g>
    <g font-family="Arial" font-size="29" space="preserve" font-weight="bold">
     <text fill="red" text-anchor="start" transform="translate(553,274)">
      <tspan dy="-.1em">
       gb → tH
      </tspan>
      <tspan font-size="60%" dx=".1em" dy="-.6em">
       +
      </tspan>
      <tspan dy=".36em">
       , H
      </tspan>
      <tspan font-size="60%" dx=".1em" dy="-.6em">
       +
      </tspan>
      <tspan dy=".36em">
       → τν
      </tspan>
     </text>
    </g>
    <g font-family="Arial" font-size="29" space="preserve" font-weight="bold">
     <text fill="blue" text-anchor="start" transform="translate(498,616)">
      <tspan dy="-.1em">
       gb → tH
      </tspan>
      <tspan font-size="60%" dx=".1em" dy="-.6em">
       +
      </tspan>
      <tspan dy=".36em">
       , H
      </tspan>
      <tspan font-size="60%" dx=".1em" dy="-.6em">
       +
      </tspan>
      <tspan dy=".36em">
       → tb
      </tspan>
     </text>
    </g>
   </g>
  </g>
 </g>
</svg>

<svg xmlns="http://www.w3.org/2000/svg" viewBox="0 0 1200 800" preserveAspectRatio="none" width="1200" height="800">
 <defs>
  <pattern id="pat_3005_6" patternUnits="userSpaceOnUse" width="8" height="8">
   <path d="M0,0L8,8" style="stroke: magenta; stroke-width: 1;"></path>
  </pattern>
  <pattern id="pat_3005_1" patternUnits="userSpaceOnUse" width="8" height="8">
   <path d="M0,0L8,8" style="stroke: black; stroke-width: 1;"></path>
  </pattern>
  <pattern id="pat_3004_2" patternUnits="userSpaceOnUse" width="8" height="8">
   <path d="M8,0L0,8" style="stroke: red; stroke-width: 1;"></path>
  </pattern>
  <pattern id="pat_3004_4" patternUnits="userSpaceOnUse" width="8" height="8">
   <path d="M8,0L0,8" style="stroke: blue; stroke-width: 1;"></path>
  </pattern>
 </defs>
 <title>
  ROOT canvas
 </title>
 <rect x="0" y="0" width="1200" height="800" style="fill: white;"></rect>
 <g>
  <g transform="translate(120,80)">
   <title></title>
   <rect x="0" y="0" width="960" height="640" style="fill: white; stroke: black; stroke-width: 1;"></rect>
   <g>
    <path d="M103,0v640M392,0v640M681,0v640" style="stroke: black; stroke-width: 1; stroke-dasharray: 1,2;"></path>
    <path d="M0,640h960M0,527h960M0,460h960M0,413h960M0,377h960M0,347h960M0,322h960M0,300h960M0,281h960M0,263h960M0,150h960M0,84h960M0,37h960M0,0h960" style="stroke: black; stroke-width: 1; stroke-dasharray: 1,2;"></path>
   </g>
   <svg x="0" y="0" overflow="hidden" width="960" height="640" viewBox="0 0 960 640">
    <g>
     <path d="M429.27,645C429.12,644.14,398.8,467.62,398.37,465.82S382.5,423.52,380.94,420S342.95,348.65,341.28,345S323.98,299.51,323.05,299.76S334.11,265.45,335.29,262.86S361.71,227.81,364.4,222.38S416.22,86.14,417.16,83.1S429.75,36.63,429.27,36.51S414.23,-29.28,414.11,-29.83L384.86,-23.14C385.76,-20.98,421.11,65.28,421.61,65.51S398.45,67.91,388.49,74.26S340.17,203.72,337.53,209.05S308.53,251.02,307.97,250.46S330.2,328.25,330.78,328.75S310.24,357.14,314,357.48S351.98,428.72,353.51,432.14S368.77,471.01,369.19,472.74S399.56,649.25,399.71,650.1Z" style="stroke: none; fill: url(#pat_3005_6); opacity: 0.75;"></path>
     <path d="M429.27,645C429.12,644.14,398.8,467.62,398.37,465.82S382.5,423.52,380.94,420S342.95,348.65,341.28,345S323.98,299.51,323.05,299.76S334.11,265.45,335.29,262.86S361.71,227.81,364.4,222.38S416.22,86.14,417.16,83.1S429.75,36.63,429.27,36.51S414.23,-29.28,414.11,-29.83" style="stroke: magenta; stroke-width: 3; fill: none;"></path>
    </g>
    <g>
     <path d="M959,459l-64,-2l-74,-2l-66,-8l-94,-6l-70,-17l-62,-30l-76,-53l-51,-41l-67,-10l-38,-19l-23,-53l-18,-60l-8,-53l11,-106" style="stroke: black; stroke-width: 3; fill: none;"></path>
    </g>
    <g>
     <path d="M526.67,251.47C530.58,249.23,547.08,237.86,557.85,233.59S584.61,225.21,601.44,224.06S639.99,228.63,659.32,228.83S702.5,226.81,717.43,225.25S738.36,222.73,749.89,220.48S775.62,213.5,789.23,210.95S818.04,208.9,834.38,204.99S873.98,190.72,892.9,184.73S949.1,168.6,959.33,165.66L951.05,136.83C940.7,139.8,902.56,150.18,883.85,156.13S843.19,172.04,827.41,175.81S797.12,178.97,783.71,181.46S755.3,188.87,744.15,191.04S728.26,193.96,714.32,195.41S678.79,198.98,659.63,198.83S618.11,192.8,599.4,194.13S559.47,200.74,546.81,205.7S516.18,222.95,511.75,225.44Z" style="stroke: none; fill: url(#pat_3004_2); opacity: 0.75;"></path>
     <path d="M526.67,251.47C530.58,249.23,547.08,237.86,557.85,233.59S584.61,225.21,601.44,224.06S639.99,228.63,659.32,228.83S702.5,226.81,717.43,225.25S738.36,222.73,749.89,220.48S775.62,213.5,789.23,210.95S818.04,208.9,834.38,204.99S873.98,190.72,892.9,184.73S949.1,168.6,959.33,165.66" style="stroke: red; stroke-width: 3; fill: none;"></path>
    </g>
    <g>
     <path d="M530.46,464.8C536.76,461.52,564.38,446.59,578.54,439.78S620.97,418.83,635.07,414.75S659.31,408.11,670.26,409.98S693.62,420.04,702.71,425.47S730.64,449.1,744.27,455.27S786.25,461.2,801.23,466S828.62,478.44,843.39,485.07S892.74,505.51,907.67,513.67S953.62,543.42,959.73,547.38L940.71,576.76C934.87,572.97,905.22,552.21,890.89,544.38S842.96,523.27,829.06,517S805.47,504.25,790.55,499.33S744.49,493.77,729.84,487.16S692.64,460.42,684.77,455.52S670.83,445.59,664.36,444.48S655.45,444.92,644.79,448.37S606.97,464.88,593.73,471.31S552.79,492.63,546.62,495.85Z" style="stroke: none; fill: url(#pat_3004_4); opacity: 0.75;"></path>
     <path d="M530.46,464.8C536.76,461.52,564.38,446.59,578.54,439.78S620.97,418.83,635.07,414.75S659.31,408.11,670.26,409.98S693.62,420.04,702.71,425.47S730.64,449.1,744.27,455.27S786.25,461.2,801.23,466S828.62,478.44,843.39,485.07S892.74,505.51,907.67,513.67S953.62,543.42,959.73,547.38" style="stroke: blue; stroke-width: 3; fill: none;"></path>
    </g>
    <g>
     <path d="M465.21,126.33C477.91,131.18,524.98,149.67,552.52,159.7S628.81,191.83,652.33,194.26S681.15,193.18,695.15,188.31S733.04,165.74,746.53,159.7S781.08,148.46,792.26,144.21S813.01,135.11,823.31,131.1S851.49,120.25,863.4,116.8S885.33,111.43,900.74,108.45S949.81,100.47,959.33,98.92L954.51,69.31C944.85,70.88,911.03,75.9,895.05,79S867.74,84.3,855.04,87.98S823.05,99.01,812.42,103.14S792.96,111.83,781.59,116.17S747.58,126.29,734.27,132.32S696.95,155.81,685.29,159.97S675.63,166.51,655.42,164.42S589.12,141.23,562.78,131.51S488.55,103.14,475.92,98.31Z" style="stroke: none; fill: url(#pat_3004_4); opacity: 0.75;"></path>
     <path d="M465.21,126.33C477.91,131.18,524.98,149.67,552.52,159.7S628.81,191.83,652.33,194.26S681.15,193.18,695.15,188.31S733.04,165.74,746.53,159.7S781.08,148.46,792.26,144.21S813.01,135.11,823.31,131.1S851.49,120.25,863.4,116.8S885.33,111.43,900.74,108.45S949.81,100.47,959.33,98.92" style="stroke: blue; stroke-width: 3; fill: none;"></path>
    </g>
   </svg>
   <g>
    <g transform="translate(0,640)">
     <line x1="0" y1="0" x2="960" y2="0" style="stroke: black; stroke-width: 1;"></line>
     <path d="M103,-16v16m289,-16v16m289,-16v16" style="stroke: black; stroke-width: 1;"></path>
     <path d="M103,-624v-16m289,16v-16m289,16v-16" style="stroke: black; stroke-width: 1;"></path>
     <g font-family="Arial" font-size="24" space="preserve">
      <text fill="black" text-anchor="start" transform="translate(92,40)">
       <tspan dy="-.1em">
        2
       </tspan>
       <tspan font-size="60%" dx=".1em" dy="-.6em">
        6
       </tspan>
      </text>
      <text fill="black" text-anchor="start" transform="translate(381,40)">
       <tspan dy="-.1em">
        2
       </tspan>
       <tspan font-size="60%" dx=".1em" dy="-.6em">
        7
       </tspan>
      </text>
      <text fill="black" text-anchor="start" transform="translate(670,40)">
       <tspan dy="-.1em">
        2
       </tspan>
       <tspan font-size="60%" dx=".1em" dy="-.6em">
        8
       </tspan>
      </text>
     </g>
     <g font-family="Arial" font-size="28" space="preserve" transform="translate(480,45)">
      <text fill="black" text-anchor="start" transform="translate(-58,5)">
       <tspan dy="-.1em">
        m
       </tspan>
       <tspan font-size="60%" dx=".1em" dy=".4em">
        A
       </tspan>
       <tspan dy="-.24em">
        (GeV)
       </tspan>
      </text>
     </g>
    </g>
    <g>
     <line x1="0" y1="0" x2="0" y2="640" style="stroke: black; stroke-width: 1;"></line>
     <path d="M36,640h-36m36,-113h-36m36,-67h-36m36,-47h-36m36,-36h-36m36,-30h-36m36,-25h-36m36,-22h-36m36,-19h-36m36,-18h-36m36,-113h-36m36,-66h-36m36,-47h-36m36,-37h-36" style="stroke: black; stroke-width: 1;"></path>
     <path d="M924,640h36m-36,-113h36m-36,-67h36m-36,-47h36m-36,-36h36m-36,-30h36m-36,-25h36m-36,-22h36m-36,-19h36m-36,-18h36m-36,-113h36m-36,-66h36m-36,-47h36m-36,-37h36" style="stroke: black; stroke-width: 1;"></path>
     <g font-family="Arial" font-size="16" space="preserve">
      <text fill="black" text-anchor="end" dy=".4em" transform="translate(-4,640)">
       1
      </text>
      <text fill="black" text-anchor="end" dy=".4em" transform="translate(-4,527)">
       2
      </text>
      <text fill="black" text-anchor="end" dy=".4em" transform="translate(-4,460)">
       3
      </text>
      <text fill="black" text-anchor="end" dy=".4em" transform="translate(-4,413)">
       4
      </text>
      <text fill="black" text-anchor="end" dy=".4em" transform="translate(-4,377)">
       5
      </text>
      <text fill="black" text-anchor="end" dy=".4em" transform="translate(-4,347)">
       6
      </text>
      <text fill="black" text-anchor="end" dy=".4em" transform="translate(-4,322)">
       7
      </text>
      <text fill="black" text-anchor="end" dy=".4em" transform="translate(-4,300)">
       8
      </text>
      <text fill="black" text-anchor="end" dy=".4em" transform="translate(-4,281)">
       9
      </text>
      <text fill="black" text-anchor="end" dy=".4em" transform="translate(-4,263)">
       10
      </text>
      <text fill="black" text-anchor="end" dy=".4em" transform="translate(-4,150)">
       20
      </text>
      <text fill="black" text-anchor="end" dy=".4em" transform="translate(-4,84)">
       30
      </text>
      <text fill="black" text-anchor="end" dy=".4em" transform="translate(-4,37)">
       40
      </text>
      <text fill="black" text-anchor="end" dy=".4em" transform="translate(-4,0)">
       50
      </text>
     </g>
     <g font-family="Arial" font-size="28" space="preserve" transform="translate(-49,640)">
      <text fill="black" text-anchor="start" transform=" rotate(270) translate(0,14)">
       tanβ
      </text>
     </g>
    </g>
   </g>
   <g>
    <g font-family="Arial" font-size="29" space="preserve" font-weight="bold">
     <text fill="magenta" text-anchor="start" transform="translate(432,45)">
      <tspan dy="-.1em">
       ← t → bH
      </tspan>
      <tspan font-size="60%" dx=".1em" dy="-.6em">
       +
      </tspan>
      <tspan dy=".36em">
       , H
      </tspan>
      <tspan font-size="60%" dx=".1em" dy="-.6em">
       +
      </tspan>
      <tspan dy=".36em">
       → τν
      </tspan>
     </text>
    </g>
    <g font-family="Arial" font-size="29" space="preserve" font-weight="bold">
     <text fill="black" text-anchor="start" transform="translate(808,331)">
      ATLAS
     </text>
    </g>
    <g font-family="Arial" font-size="17" space="preserve" font-weight="bold">
     <text fill="black" text-anchor="start" transform="translate(785,369)">
      <tspan dy="-.1em">
       ∫
      </tspan>
      <tspan>
       Ldt = 300 fb
      </tspan>
      <tspan font-size="60%" dx=".1em" dy="-.6em">
       -1
      </tspan>
     </text>
    </g>
    <g font-family="Arial" font-size="17" space="preserve" font-weight="bold">
     <text fill="black" text-anchor="start" transform="translate(800,406)">
      Maximal mixing
     </text>
    </g>
    <g font-family="Arial" font-size="17" space="preserve" font-weight="bold">
     <text fill="black" text-anchor="start" transform="translate(881,489)">
      LEP 2000
     </text>
    </g>
    <g font-family="Arial" font-size="29" space="preserve" font-weight="bold">
     <text fill="red" text-anchor="start" transform="translate(553,274)">
      <tspan dy="-.1em">
       gb → tH
      </tspan>
      <tspan font-size="60%" dx=".1em" dy="-.6em">
       +
      </tspan>
      <tspan dy=".36em">
       , H
      </tspan>
      <tspan font-size="60%" dx=".1em" dy="-.6em">
       +
      </tspan>
      <tspan dy=".36em">
       → τν
      </tspan>
     </text>
    </g>
    <g font-family="Arial" font-size="29" space="preserve" font-weight="bold">
     <text fill="blue" text-anchor="start" transform="translate(498,616)">
      <tspan dy="-.1em">
       gb → tH
      </tspan>
      <tspan font-size="60%" dx=".1em" dy="-.6em">
       +
      </tspan>
      <tspan dy=".36em">
       , H
      </tspan>
      <tspan font-size="60%" dx=".1em" dy="-.6em">
       +
      </tspan>
      <tspan dy=".36em">
       → tb
      </tspan>
     </text>
    </g>
   </g>
  </g>
 </g>
</svg>
